X:4
T:Polska 
S:efter Anders Peter Roos
O:Hägerstad, Östergötland 
R:Polska
B:Ög 17
B:http://www.smus.se/earkiv/fmk/browselarge.php?lang=sw&katalogid=%C3%96g+17&bildnr=00006
M:3/4
L:1/8
K:Dm, F
af dd ^cc | dd ee ff | af df e^c | A2 d2 "Fine" z2 :|
fg af af | g/2f/2g/2a/2 b2 g2 | ge ce ge | f/2e/2f/2g/2 a2"D.C. al Fine" f2 |]

